!!!!SEGMENT: pl-wumfc--n68232--001-015_moniuszko-stanislaw--paria-wyciag-fortepianowy-akt-ii-scena-i-idamor-solo.krn
!!!cenid: 18xx:4145
!!!COM: Moniuszko, Stanisław
!!!COM-rismID: pe30008351
!!!CDT: 1819/05/05-1872/06/04
!!!CNT: Polish
!!!GTL: Paria – wyciąg fortepianowy
!!!OTL: Akt II. Scena I. Idamor Solo
!!!OMV: 015
!!!PDT:
!!!AGN: Secular; Opera
!!!YEC: Copyright 2022 Narodowy Instytut Fryderyka Chopina (https://polishscores.org)
!!!YEM: License CC-BY-4.0 (https://creativecommons.org/licenses/by/4.0)
!!!SMS-siglum: PL-Wumfc
!!!SMS-shelfmark: N68232
!!!SMS-shelfwork: 001-015 G
!!!SMS-variant:
!!!SMS-altvar:
!!!NIFC-rismSourceID: 1001171381
!!!NIFC-rismChildID: 1001171381
!!!NIFC-islandoraID: pl-wumfc:7210
!!!URL-pdf-islandora: https://repozytorium.nifc.pl/islandora/object/pl-wumfc%3A7210/datastream/PDF/view
!!!URL-scan: https://polish.musicsources.pl/pl/lokalizacje/galeria/druki-muzyczne/12634/1 @EN{Scan on Polish Music Sources Website} @PL{Skany w portalu Dziedzictwo Muzyki Polskiej w otwartym dostępie}
!!!IIIF:
!!!ONB-nifc: UWAGA: str. 60. Uwaga: proszę w pliku umieszczać obsadę, która występuje tylko w danej części.
!!!AIN: 3 empty
!!!key:
**kern	**dynam	**kern	**dynam	**kern	**text	**text
*part3	*	*part2	*	*part1	*	*
*staff3	*	*staff2	*	*staff1	*	*
*Iempty	*	*Iempty	*	*Iempty	*	*
*I"[Fortepian.]	*	*I"[Fortepian.]	*	*I"Idamor. Idamor.	*	*
*I'pf	*	*I'pf	*	*I'I. I.	*	*
*clefF4	*	*clefF4	*	*clefG2	*	*
*k[]	*	*k[]	*	*k[]	*	*
*f:	*	*f:	*	*f:	*	*
*M4/4	*	*M4/4	*	*M4/4	*	*
*met(c)	*	*met(c)	*	*met(c)	*	*
=	=	=	=	=	=	=
!	!	!LO:TX:B:t=Allegro.	!	!	!	!
N[2.C\	.	N[2.c	.	1ryy	.	.
8.BB-\LL	.	8.B-\LL	.	.	.	.
16C\JJ	.	16c\JJ	.	.	.	.
=	=	=	.=	=	=	=
*^	*	*	*	*	*	*
*	*	*	*^	*	*	*	*
[1CN]	2.BB-	.	2.B-\	[>1cN]	.	1ryy	.	.
.	8.AA-\LL	.	8.A-\LL	.	.	.	.	.
.	16BB-\JJ	.	16B-\JJ	.	.	.	.	.
=	=	=	=	.=	=	=	=	=
1C_	4AA-\	.	4A-\	1c_>	.	1ryy	.	.
.	8.GG\LL	.	8.G\LL	.	.	.	.	.
.	16AA\JJ	.	16A\JJ	.	.	.	.	.
.	4GG\	.	4G\	.	.	.	.	.
.	8.FF\LL	.	8.F\LL	.	.	.	.	.
.	16GG\JJ	.	16G\JJ	.	.	.	.	.
=	=	=	=	.=	=	=	=	=
!LO:TX:a:t= ZASŁONA	!	!	!	!	!	!	!	!
!LO:TX:a:i:t= SI ALZA LA TELA	!	!	!	!	!	!	!	!
(1C]	4FF\	.	4F\	[>1c]	.	1ryy	.	.
.	8.EE-\LL	.	8.E-\LL	.	.	.	.	.
.	16FF\JJ	.	16F\JJ	.	.	.	.	.
.	4EE-\	.	4E-\	.	.	.	.	.
.	8.DD\LL	.	8.D\LL	.	.	.	.	.
.	16EE-\JJ	.	16E-\JJ	.	.	.	.	.
*	*	*	*v	*v	*	*	*	*
*v	*v	*	*	*	*	*	*
!!LO:LB:g=original	!	!	!	!	!	!
=1	=1	=1	=1	=1	=1	=1
!	!	!	!	!LO:TX:a:t=Idamor. (wchodzi zamyślony)	!	!
!	!	!	!	!LO:TX:i:t=Idamor. (si innoltra pensieroso)	!	!
[1CC [1AAn)	.	[1E-X [1F#X [1c]	.	1r	.	.
=2	=2	=2	=2	=2	=2	=2
*^	*	*	*	*	*	*
!	!	!	!LO:TX:a:B:t=Recit.	!	!LO:TX:a:t=Recit.	!	!
1AA]	2CC\]	.	1E-_ 1F#_ 1c_	.	4cc\	"Sy-	"Fi-
.	.	.	.	.	4a/	-nu!"	-glio!"
.	2r	.	.	.	4r	.	.
.	.	.	.	.	16r	.	.
.	.	.	.	.	16cc\	on	e-
.	.	.	.	.	16cc\	mo-	-gli
.	.	.	.	.	16cc\	-im	mio
*v	*v	*	*	*	*	*	*
=3	=3	=3	=3	=3	=3	=3
[1AA	.	1E-] 1F#] 1c]	.	2ee-X\	oj-	pa-
.	.	.	.	4f#X/	-cem?	-dre?
.	.	.	.	4r	.	.
=4	=4	=4	=4	=4	=4	=4
(1AA]	.	(1D 1F#X 1c	.	8r	.	.
.	.	.	.	8cc\	Więc	E
.	.	.	.	8b\	Dża-	Dja-
.	.	.	.	8cc\	-res	-res
.	.	.	.	4.dd\	nie	non
.	.	.	.	8a/	jest	lo e
!!LO:LB:g=original	!	!	!	!	!	!
=5	=5	=5	=5	=5	=5	=5
4GG/) 4BB-X	.	4G\) 4B-X	.	8b-X\	nim?	piu?
.	.	.	.	8r	.	.
4r	.	4r	.	8b-\	zrze-	Lo
.	.	.	.	16cc\	-kłem	rin-
.	.	.	.	16dd\	się	-ne-
2r	.	2r	.	4g/	go...	-gai...
.	.	.	.	8r	.	.
.	.	.	.	8dd\	to	In-
*	*	*clefG2	*	*	*	*
=6	=6	=6	=6	=6	=6	=6
1EE-X 1BB-X	.	8.r	f	2dd\	zbro-	-fa-
.	.	16g\ 16dd 16gg	>	.	.	.
.	.	2.g\ 2.dd 2.gg	.	.	.	.
.	.	.	.	4g/	-dnia!...	-mia!
.	.	.	]]	4r	.	.
=7	=7	=7	=7	=7	=7	=7
(1EE-X [1AA	.	(1G	p	8r	.	.
.	.	.	.	8g/	Czyż	Pos-
.	.	.	.	8g/	dru-	-s'io
.	.	.	.	8g/	-ga	com-
.	.	.	.	4.g/	speł-	-pir-
.	.	.	.	8f#X/	-nić	-ne un'
!!LO:LB:g=original	!	!	!	!	!	!
=8	=8	=8	=8	=8	=8	=8
*	*	*	*	*^	*	*
*	*	*	*	*	*cue	*	*
8DD/) 8AA]	.	8F#X/)	.	8a/	16a\	mam?	al-
.	.	.	.	.	16a\	.	-tra?
*	*	*	*	*	*Xcue	*	*
(32F#X\LLL	.	(<32f#X/LLL	f	8r	8ryy	.	.
32G\	.	32g/	.	.	.	.	.
32A\	.	32a/	.	.	.	.	.
32B-X\JJJ	.	32b-X/JJJ	.	.	.	.	.
4.c^\)	.	4.cc^\)	.	4ee-X^\	4ryy	Nie!	No!
.	.	.	.	8r	2ryy	.	.
!	!LO:DY:a	!	!	!	!	!	!
8AA'/L 8A	p	8a'/L	.	8a/	.	Niech	E
8FF#X'/ 8F#	.	8f#'/	.	8.dd\	.	po-	mio
8DD'/J 8D	.	8d'/J	.	.	.	.	.
.	.	.	.	16cc\	.	-zna	do-
*	*	*	*	*v	*v	*	*
=9	=9	=9	=9	=9	=9	=9
8GG/	.	8d/ 8b-X	.	8b-X\	prze-	-ver
8r	.	8r	.	8dd\	-szłość	sve-
8E-X\	.	8B-X/ 8e-X 8g	.	8.g/	nie-	-lar
8r	.	8r	.	.	.	.
.	.	.	.	16b-\	-szczę-	a
8C/	.	8c/ 8e- 8a	.	4a/	-sne-	lei
8r	.	8r	.	.	.	.
8D\	.	8A/ 8d	.	8.g/	-go	il
8r	.	8r	.	.	.	.
.	.	.	.	16f#X/	tu	mio ar
=10||	=10||	=10||	=10||	=10||	=10||	=10||
*k[f#]	*	*k[f#]	*	*k[f#]	*	*
1ryy	.	1ryy	.	1ryy	.	.
=	=	=	=	=	=	=
*-	*-	*-	*-	*-	*-	*-
!!!system-decoration: s1{(s2,s3)}
!!!RDF**kern: > = above
!!!RDF**kern: < = below
!!!RDF**kern: N = linked
!!!ENC: Andrzej Gręziak
!!!END: 2022-08-30
!!!ENC: Jan Barakat
!!!END: 2022-10-11
